teeny/outline/user.svg

<svg width="15" height="15" viewBox="0 0 15 15" fill="none" xmlns="http://www.w3.org/2000/svg">
<path fill-rule="evenodd" clip-rule="evenodd" d="M10.5 3.49804C10.5 5.15396 9.157 6.49609 7.5 6.49609C5.843 6.49609 4.5 5.15396 4.5 3.49804C4.5 1.84212 5.843 0.5 7.5 0.5C9.157 0.5 10.5 1.84212 10.5 3.49804Z" stroke="black" stroke-linecap="square"/>
<path fill-rule="evenodd" clip-rule="evenodd" d="M12.5 14.4909H2.5C2.5 13.7808 2.5 13.1053 2.5 12.4936C2.5 10.8368 3.84315 9.49414 5.5 9.49414H9.5C11.1569 9.49414 12.5 10.8368 12.5 12.4936C12.5 13.1053 12.5 13.7808 12.5 14.4909Z" stroke="black" stroke-linecap="square"/>
</svg>

<svg viewBox="0 0 15 15" xmlns="http://www.w3.org/2000/svg"><g stroke-linecap="square" stroke="#000" fill-rule="evenodd" fill="none"><path d="M10.5 3.49c0 1.65-1.343 2.99-3 2.99s-3-1.35-3-3c0-1.66 1.343-3 3-3s3 1.34 3 2.99Z"/><path d="M12.5 14.49h-10c0-.72 0-1.39 0-2 0-1.66 1.34-3 3-3h4c1.65 0 3 1.34 3 2.99 0 .61 0 1.28 0 1.99Z"/></g></svg>
